X: 9298
T: Dancer's Denial
R: reel
M: 4/4
K: Dmajor
A2 AB AFDF|EFGA B2 AG|FA ~A2 dAFD|EFGE FD ~D2:|
defg afdf|~g2 fg edBc|~d2 ce dGBd|eceB cA ~A2|
defg afdf|~g2 fg edBA|FA ~A2 dAFD|EFGE FD D2:|

